X:278
T: ES WAR EINMAL EINE MUELLERIN
N: E0156
O: Europa, Mitteleuropa, Deutschland, Odenwald
R: erzaehlendes Volks - Lied, Scherz, Schwank
M: 4/4
L: 1/8
K: F
C2 | F3GAGAB | c3dc2
A2 | B3AB2c2 | A4z2
FA | c2A2c2A2 | c3fd2
c2 | B2A2G2A2 | B3dc2
B2 | A3GA2B2 | c4
d4 | c3AB2c2 | A4z2

